src/layouts/common/icon/1-active.svg

<svg height="30" viewBox="0 0 30 30" width="30" xmlns="http://www.w3.org/2000/svg" xmlns:xlink="http://www.w3.org/1999/xlink"><radialGradient id="a" cx="95.100536%" cy="87.571665%" r="139.490169%"><stop offset="0" stop-color="#a67c38"/><stop offset="1" stop-color="#fff5db"/></radialGradient><g fill="none"><circle cx="15" cy="15" fill="url(#a)" r="15"/><path d="m16.2149678 5.37433262c-.5503407-.49911016-1.3897118-.49911016-1.9400525 0l-7.8448737 7.44747138c-.29234548.2685608-.31369929.7224588-.04785781 1.0172688.26584148.2948099.71961211.3204489 1.01698342.0574615l.1247434-.1184139v7.7729972c-.00047814.3841018.15180253.7526354.42329147 1.0244055.27148893.27177.63990989.4244769 1.02409222.4244769h4.2120036v-4.3565525c-.0003587-.2705411.1069153-.5301178.2981724-.7215039.1912571-.191386.4507932-.2988668.721391-.298747h1.9819339c.2705979-.0001198.530134.107361.7213911.298747.1912571.1913861.2985311.4509628.2981723.7215039v4.3565525h4.3119785c.3842604 0 .7527971-.1525346 1.0243835-.4243176s.4239288-.640385.4234506-1.0245648v-7.6779959c.3215407.2908571.7777323.2687951 1.0452326-.0292658.1286591-.1424464.1954379-.3301647.1856408-.5218449-.0097972-.1916802-.0953675-.3716149-.23788-.500207l-7.7421968-7.44702114z" fill="#12182b" transform="matrix(-1 0 0 1 30.391978 0)"/></g></svg>

<?xml version="1.0" encoding="UTF-8"?>
<svg width="30px" height="30px" viewBox="0 0 30 30" version="1.1" xmlns="http://www.w3.org/2000/svg" xmlns:xlink="http://www.w3.org/1999/xlink">
    <!-- Generator: Sketch 61.2 (89653) - https://sketch.com -->
    <title>Group</title>
    <desc>Created with Sketch.</desc>
    <defs>
        <radialGradient cx="95.1005363%" cy="87.5716654%" fx="95.1005363%" fy="87.5716654%" r="139.490169%" id="radialGradient-1">
            <stop stop-color="#A67C38" offset="0%"></stop>
            <stop stop-color="#FFF5DB" offset="100%"></stop>
        </radialGradient>
    </defs>
    <g id="5.12" stroke="none" stroke-width="1" fill="none" fill-rule="evenodd">
        <g id="蜜蜂会员-首页备份-2" transform="translate(-47.000000, -848.000000)" fill-rule="nonzero">
            <g id="编组-2备份" transform="translate(0.000000, 845.000000)">
                <g id="Group" transform="translate(47.000000, 3.000000)">
                    <circle id="椭圆形" fill="url(#radialGradient-1)" cx="15" cy="15" r="15"></circle>
                    <path d="M16.2149678,5.37433262 C15.6646271,4.87522246 14.825256,4.87522246 14.2749153,5.37433262 L6.4300416,12.821804 C6.13769612,13.0903648 6.11634231,13.5442628 6.38218379,13.8390728 C6.64802527,14.1338827 7.1017959,14.1595217 7.39916721,13.8965343 L7.52391061,13.7781204 L7.52391061,21.5511176 C7.52343247,21.9352194 7.67571314,22.303753 7.94720208,22.5755231 C8.21869101,22.8472931 8.58711197,23 8.9712943,23 L13.1832979,23 L13.1832979,18.6434475 C13.1829392,18.3729064 13.2902132,18.1133297 13.4814703,17.9219436 C13.6727274,17.7305576 13.9322635,17.6230768 14.2028613,17.6231966 L16.1847952,17.6231966 C16.4553931,17.6230768 16.7149292,17.7305576 16.9061863,17.9219436 C17.0974434,18.1133297 17.2047174,18.3729064 17.2043586,18.6434475 L17.2043586,23 L21.5163371,23 C21.9005975,23 22.2691342,22.8474654 22.5407206,22.5756824 C22.812307,22.3038994 22.9646494,21.9352974 22.9641712,21.5511176 L22.9641712,13.8731217 C23.2857119,14.1639788 23.7419035,14.1419168 24.0094038,13.8438559 C24.1380629,13.7014095 24.2048417,13.5136912 24.1950446,13.322011 C24.1852474,13.1303308 24.0996771,12.9503961 23.9571646,12.821804 L16.2149678,5.37478286 L16.2149678,5.37433262 Z" id="路径" fill="#12182B" transform="translate(15.195989, 14.000000) scale(-1, 1) translate(-15.195989, -14.000000) "></path>
                </g>
            </g>
        </g>
    </g>
</svg>
